packages/core/src/svgs/geod.svg

<svg width="24" height="24" viewBox="0 0 24 24" fill="none" xmlns="http://www.w3.org/2000/svg">
<g clip-path="url(#clip0_31_10726)">
<path d="M0 0H24V24H0V0Z" fill="#CAE9EF"/>
<path d="M17.4557 17.4559C18.1721 16.7395 18.7405 15.8889 19.1282 14.9528C19.5159 14.0167 19.7155 13.0134 19.7155 12.0002C19.7155 10.987 19.5159 9.98369 19.1282 9.0476C18.7405 8.11151 18.1721 7.26095 17.4557 6.5445C16.7392 5.82804 15.8887 5.25972 14.9526 4.87198C14.0165 4.48424 13.0132 4.28467 12 4.28467C10.9867 4.28467 9.98345 4.48424 9.04736 4.87198C8.11126 5.25972 7.26071 5.82804 6.54425 6.5445C5.09731 7.99144 4.28442 9.95392 4.28442 12.0002C4.28442 14.0465 5.09731 16.009 6.54425 17.4559C7.9912 18.9029 9.95368 19.7158 12 19.7158C14.0463 19.7158 16.0087 18.9029 17.4557 17.4559ZM16.8214 7.17878C18.1001 8.45751 18.8185 10.1918 18.8185 12.0002C18.8185 13.8086 18.1001 15.5429 16.8214 16.8216C15.5466 18.111 13.813 18.8429 12 18.8574C10.1869 18.8429 8.45334 18.111 7.17854 16.8216C5.89983 15.5429 5.18146 13.8086 5.18146 12.0002C5.18146 10.1918 5.89983 8.45751 7.17854 7.17878C8.45334 5.88947 10.1869 5.15753 12 5.14307C13.813 5.15753 15.5466 5.88947 16.8214 7.17878ZM16.3543 13.8002C16.6061 13.2258 16.7408 12.607 16.7505 11.9799C16.7602 11.3527 16.6446 10.73 16.4106 10.1481C16.1766 9.56625 15.8288 9.03691 15.3877 8.59111C14.9465 8.14531 14.4208 7.79203 13.8414 7.55194C13.262 7.31185 12.6405 7.18979 12.0134 7.1929C11.3862 7.19602 10.7659 7.32424 10.189 7.57007C9.61196 7.8159 9.08982 8.17439 8.65311 8.62454C8.2164 9.07469 7.87391 9.60746 7.64568 10.1916C7.19676 11.3407 7.21616 12.62 7.6997 13.7549C8.18325 14.8899 9.09241 15.7901 10.2321 16.2623C11.3718 16.7346 12.6512 16.7413 13.7958 16.281C14.9403 15.8207 15.8589 14.93 16.3543 13.8002ZM10.3457 11.5074C10.38 10.4616 10.7014 9.09021 11.5157 8.37021C11.5414 8.34878 11.5714 8.35307 11.5714 8.38736V11.5031C11.5714 11.5288 11.5285 11.5674 11.5071 11.5674H10.3928C10.3628 11.5674 10.35 11.5374 10.35 11.5074H10.3457ZM12.4285 10.3502C12.4289 9.75164 12.4304 9.15307 12.4328 8.5545C12.4371 8.50736 12.4414 8.45164 12.4328 8.39593C12.4285 8.3445 12.4414 8.33593 12.48 8.36593C13.3071 9.05164 13.59 10.4445 13.6714 11.4859C13.6714 11.5202 13.6457 11.5674 13.6157 11.5674H12.5014C12.4714 11.5674 12.4285 11.5331 12.4285 11.5074V10.3502ZM9.40283 11.5716H8.26283C8.23711 11.5716 8.21568 11.5245 8.21997 11.4945C8.29824 10.9074 8.51159 10.3463 8.84324 9.85556C9.17489 9.36477 9.61583 8.95757 10.1314 8.66593C10.1571 8.65307 10.1614 8.66164 10.1485 8.68736C9.71694 9.57036 9.47462 10.5338 9.43711 11.5159C9.43711 11.5416 9.42425 11.5716 9.40283 11.5716ZM13.89 8.68307C14.4023 8.97668 14.8399 9.38475 15.1685 9.87542C15.4971 10.3661 15.7078 10.9261 15.7843 11.5116C15.7843 11.5416 15.7714 11.5716 15.7414 11.5716H14.6185C14.5757 11.5716 14.5585 11.5331 14.5543 11.4945C14.5227 10.5269 14.2891 9.57652 13.8685 8.7045C13.8514 8.67021 13.86 8.66164 13.89 8.68307ZM10.1014 15.3174C9.59252 15.0226 9.15795 14.6152 8.83106 14.1263C8.50417 13.6375 8.29366 13.0802 8.21568 12.4974C8.2114 12.4716 8.23283 12.4288 8.25854 12.4288H9.40283C9.42854 12.4288 9.44568 12.4674 9.44568 12.4888C9.47997 13.4745 9.70711 14.4045 10.1314 15.2874C10.1528 15.3302 10.1443 15.3388 10.1014 15.3174ZM11.5714 12.5102V15.5831C11.5714 15.6516 11.5285 15.6602 11.4857 15.6131C10.68 14.7988 10.4228 13.6374 10.3371 12.5145C10.3328 12.4716 10.3543 12.4288 10.3971 12.4288H11.4943C11.5285 12.4288 11.5714 12.4759 11.5714 12.5145V12.5102ZM12.4285 15.5959V12.4545C12.4285 12.4545 12.4328 12.4288 12.4414 12.4288H13.6157C13.6457 12.4288 13.6671 12.4674 13.6628 12.4931C13.62 13.5645 13.3071 14.8374 12.5057 15.6216C12.4671 15.6602 12.4285 15.6516 12.4285 15.5959ZM13.8514 15.3131C14.3143 14.5245 14.5243 13.3674 14.5585 12.4802C14.5585 12.4545 14.5757 12.4288 14.6014 12.4288H15.7414C15.7671 12.4288 15.7885 12.4716 15.7843 12.4931C15.6171 13.6716 14.9271 14.7474 13.8685 15.3345C13.8385 15.3474 13.8343 15.3431 13.8514 15.3131Z" fill="#0000FF"/>
</g>
<defs>
<clipPath id="clip0_31_10726">
<rect width="24" height="24" fill="white"/>
</clipPath>
</defs>
</svg>

<svg xmlns="http://www.w3.org/2000/svg" width="24" height="24" fill="none" viewBox="0 0 24 24"><g clip-path="url(#a)"><path fill="#CAE9EF" d="M0 0h24v24H0z"/><path fill="#00F" d="M17.456 17.456a7.715 7.715 0 1 0-10.91-10.91 7.715 7.715 0 0 0 10.91 10.91M16.82 7.179a6.82 6.82 0 0 1 0 9.643A6.86 6.86 0 0 1 12 18.857a6.86 6.86 0 0 1-4.821-2.035 6.82 6.82 0 0 1 0-9.643A6.86 6.86 0 0 1 12 5.143a6.86 6.86 0 0 1 4.821 2.036m-.467 6.621a4.715 4.715 0 1 0-8.637-3.786 4.715 4.715 0 0 0 8.637 3.786m-6.008-2.293c.034-1.045.355-2.417 1.17-3.137.025-.021.055-.017.055.017v3.116c0 .026-.043.064-.064.064h-1.114c-.03 0-.043-.03-.043-.06zm2.082-1.157q0-.898.005-1.795a.7.7 0 0 0 0-.16q-.01-.075.047-.03c.827.687 1.11 2.08 1.191 3.12 0 .035-.025.082-.055.082H12.5c-.03 0-.072-.034-.072-.06zm-3.025 1.222h-1.14c-.026 0-.047-.047-.043-.077a3.83 3.83 0 0 1 1.911-2.83q.037-.017.018.022a7.1 7.1 0 0 0-.712 2.829c0 .026-.013.056-.034.056m4.487-2.889a3.83 3.83 0 0 1 1.894 2.829c0 .03-.013.06-.043.06h-1.123c-.042 0-.06-.039-.064-.077a6.9 6.9 0 0 0-.686-2.79q-.024-.053.022-.022m-3.789 6.634a3.85 3.85 0 0 1-1.885-2.82c-.005-.025.017-.068.043-.068h1.144c.026 0 .043.038.043.06.034.986.261 1.915.685 2.798q.034.064-.03.03m1.47-2.807v3.073c0 .069-.043.077-.085.03-.806-.814-1.063-1.976-1.149-3.098-.004-.043.017-.086.06-.086h1.097c.034 0 .077.047.077.085zm.857 3.086v-3.142s.005-.025.013-.025h1.175c.03 0 .051.038.047.064-.043 1.072-.356 2.344-1.157 3.129-.039.038-.078.03-.078-.026m1.423-.283c.463-.789.673-1.946.707-2.833 0-.026.018-.051.043-.051h1.14c.026 0 .048.043.043.064-.167 1.179-.857 2.254-1.916 2.842-.03.012-.034.008-.017-.022"/></g><defs><clipPath id="a"><path fill="#fff" d="M0 0h24v24H0z"/></clipPath></defs></svg>
